/* XPM */
static char *_22e72bb8d9942f2f92ab60f5ed818b8v7Spl79ryQMw0yQR[] = {
/* columns rows colors chars-per-pixel */
"32 32 108 2 ",
"   c #0A6EAB",
".  c #0771AD",
"X  c #1474AB",
"o  c #0575B4",
"O  c #0A75B3",
"+  c #0277BD",
"@  c #0B75B9",
"#  c #0179BD",
"$  c #0B7ABC",
"%  c #127AB9",
"&  c #187EBE",
"*  c #0177C0",
"=  c #017AC3",
"-  c #1780BB",
";  c #0482C6",
":  c #0A85C4",
">  c #0386CD",
",  c #0985C9",
"<  c #0388CE",
"1  c #0D8BCE",
"2  c #1389C5",
"3  c #1289CA",
"4  c #0387D1",
"5  c #0189D1",
"6  c #0E8BD0",
"7  c #138DD5",
"8  c #0C95DA",
"9  c #1696D3",
"0  c #1995D6",
"q  c #1596D9",
"w  c #1895DA",
"e  c #1698D9",
"r  c #238CCC",
"t  c #2A93C5",
"y  c #2A94CC",
"u  c #3592CA",
"i  c #3E98CA",
"p  c #2C9CDC",
"a  c #329ED5",
"s  c #3B9CD7",
"d  c #359DDA",
"f  c #159EE3",
"g  c #1EA4E4",
"h  c #1DA8E7",
"j  c #1DA6EA",
"k  c #20A2E4",
"l  c #2BAAE5",
"z  c #2BACE8",
"x  c #3EACE3",
"c  c #31ACE9",
"v  c #29B7EF",
"b  c #33B1EA",
"n  c #27B6F6",
"m  c #29B6F6",
"M  c #25B8F4",
"N  c #26B7F9",
"B  c #2CB6F9",
"V  c #36BDF3",
"C  c #30B9F8",
"Z  c #4099CC",
"A  c #419BD3",
"S  c #41A5D5",
"D  c #44A8D6",
"F  c #40A5DE",
"G  c #44ADDF",
"H  c #48ACDE",
"J  c #41A7E2",
"K  c #43ACE1",
"L  c #43B0E4",
"P  c #45B8E9",
"I  c #5CBBEC",
"U  c #42B9F2",
"Y  c #4BBDF2",
"T  c #55BFF1",
"R  c #58BFF2",
"E  c #3AC3FA",
"W  c #46CCF6",
"Q  c #56C3F3",
"!  c #63CEEF",
"~  c #7CC2E0",
"^  c #7DC6E6",
"/  c #77CCF1",
"(  c #60D0FB",
")  c #7DD2F7",
"_  c #76D5FD",
"`  c #7DD3FA",
"'  c #7FD4FA",
"]  c #7FD6FB",
"[  c #7AD5FD",
"{  c #7DD6FE",
"}  c #75D8FF",
"|  c #74DAFF",
" . c #7AD8FD",
".. c #81CFF3",
"X. c #82D1F2",
"o. c #86D3F5",
"O. c #81D5F4",
"+. c #84D4F5",
"@. c #85D4F6",
"#. c #83D3FB",
"$. c #84D3F8",
"%. c #81D5FA",
"&. c #80D3FC",
"*. c #80D5FE",
"=. c #87DBFB",
"-. c #95DEFA",
";. c #94E3FF",
":. c #A7E1F6",
/* pixels */
"[ B 4 4 4 4 H 4 4 5 5 > [ B 4 4 4 4 4 # + * = %.[ | # 4 4 4 4 : ",
": %.4 d 4 %.%.%.%.4 4 P *.B B = 4 4 4 + B =.[ 4 + 4 %.4 4 : J + ",
"= n ..> *.B f + M o o Z *.%.$ h 4 o.4 4 ~ 4 5 4 4 4 4 : a :.= B ",
"+ o o v 4 4 ; + + + + ' o + + h < 4 < , m B B 4 4 4 4 *.I + + B ",
"+ + + *.W 4 + + + o + %.+ + + 1 B 4 B %.+ + + 4 4 4 4 %.I B B + ",
"+ + + *.4 z + + o B B ' B + + g 4 4 B %.B B + + * 4 4 #.4 + + + ",
"+ + + *.4 5 l 0 e + + o 0 w 0 7 = 4 4 %.+ + e + + 5 G G 4 5 + + ",
"+ + + { B B q p + 4 + + + + # + + 4 4 %.+ + o + + *.{ { { 4 + + ",
"+ + B { 5 > 4 + z 4 4 %.5 4 + g + 5 5 %.+ + + n %.4 4 4 4 %.5 N ",
"+ B { %.@ > 4 4 4 q > { 4 > 4 8 + ' 4 ' ' + + + #.> 4 4 j 5 ' + ",
"+ + l + %.%.%.%.%.' + + 3 %.%.Q n 4 4 + @ &.%.+ B + 4 B 4 < 4 + ",
"> u Z > 4 4 K 4 4 + + % + + ' = n 4 4 ; Z O + + n + + B 4 0 ^ 4 ",
"5 * 5 4 B 5 S o + + @ + + + %.1 5 4 B 4 n  .+ n 4 + 5 4 c 4 > 4 ",
"4 4 B B C n + { + + + + + $ * + + + 4 4 4 B E o.4 4 4 5 4 B 4 4 ",
"4 ' n + ' 1 Q + + + + ' + + $ + + + 4 4 4 4 5 q 4 4 4 4 4 [ %.+ ",
"a I g + 4 T / + + + + I n + %.$ + + 4 4 4 4 4 N ! a a ( x R 4 I ",
"[ + + 5 4 4 G ` # + %.+ + + + ) $ + 4 4 4 * 4 5 4 9 4 5 p > + + ",
"+ + n + 4 4 4 > +.' n + + + + + + X.5 5 %.%. .$.4 4 9 4 4 O.+ + ",
"+ + + + + + ; 4 %.4 4 + + + + + + %.6 5 + B v B + + 4 V 4 %.4 + ",
"%.B + O + 4 4 4 5 %.4 c + + 4 Q 4 4 4 4 n A o + + B + 5 4 %.> 5 ",
"= = . + + 4 4 4 5 * +.F 5 4 +.4 4 4 4 4 d O + + + + + m t J 5 > ",
"m U *.B B B f 4 %.+ 4 O.| | _ 4 4 * + & o # + = o b { 2 < B c o ",
"+ + { + + + q :  .o B 4 4 > 5 Q 5 B + $ # # + @ + B { : , , , o ",
"+ + + $.o.+.o.+.+ + + + + + B Y 4 5 n + B + O ;.+ + n < 4 4 %.+ ",
"# 4 4 4 4 4 4 > + B + + + + > a { 4 4 + +.%.+ + p 4 5 < 4 4 %.+ ",
"4 4 4 4 4 4 5 { %.+ + + + + + a 4 4 4 4 $.4 + 4 4 z %.4 4 4 4 > ",
"4 4 + 4 4 + D + + o B + $.+ + 5 4 4 4 4 $.4 4 4 N 4 ;.+ + + 4 > ",
"# + { ' ' 1 4 + + ' B + + + + 4 4 4 4 # 4  .' ' { ' + p + + + o ",
"+ 1 y y p 8 j 1 + y j + A + = 4 4 8 8 + k | ; 4 B I I y y y i I ",
"+ O J n 4 #.n B %.%.%.-.*.+ ) %.%.5 + # A  .%.B + + + + + - s + ",
"%.J 4 5 B 4 %.{ 4 4 4 Y 4 %.4 4 4 4 %.' *.X + %.+ + + + r   %.%.",
"4 5 B 5 B 4 L 4 4 4 , 4 B %.4 B 4 4 B + + + + = o + + + > 4 4 { "
};
