/* XPM */
static char *_a6d597d07bd4e939c4e3e33bb5480c9eAP8QkN9w0SMHXkq[] = {
/* columns rows colors chars-per-pixel */
"32 32 19 1 ",
"  c #010100",
". c #010206",
"X c #000405",
"o c #D63101",
"O c #D63403",
"+ c #D83202",
"@ c #D93104",
"# c #EF3A03",
"$ c #F23702",
"% c #F53703",
"& c #F53705",
"* c #F33803",
"= c #F53801",
"- c #F33805",
"; c #F63804",
": c #FE4910",
"> c #FF4A13",
", c #FC4C13",
"< c #FEFEFE",
/* pixels */
"<<<<<<<<<<<<<<<<<<<<<<<<<<<<<<<<",
"<<<<<<<<<<<<<<<<<<<<<<<<<<<<<<<<",
"<<<<<<<<<<<<<<<<<<<<<<<<<<<<<<<<",
"<<<<<<<<<<<<<<<<<<<<<<<<<<<<<<<<",
"<<<<<<<<<<<<<<<<<<<<<<<<<<<<<<<<",
"<<<<<<<<<<<<<<<<<<<<<<<<<<<<<<<<",
"<<<<  <<<<<<<<<<<<<<<<<<<<  <<<<",
"<<< : <  <<<<<<<<<<<<<<  < : <<<",
"<< :* < : <<<<<<<<<<<< , < &: <<",
"<< :% < % <<  <<<<  << * < &: <<",
"<< :*#X** <  < <<  < < ** -*, <<",
"<<< ++*** < << << << < ***++ <<<",
"<<<<  +* <<    <<    << *+  <<<<",
"<<<<< +* <<< , << : <<< $@ <<<<<",
"<<<<<< +*   :*:  :*:   =+ <<<<<<",
"<<<<<<< +:::******%*,::+ <<<<<<<",
"<<<<<    **********%**;    <<<<<",
"<<<< ******* *$**** ******* <<<<",
"<<< *    %***      ***%    % <<<",
"<<< + << *&*******=***% << + <<<",
"<<<< <   ***--*******=%   < <<<<",
"<<<<< **$****--$********** <<<<<",
"<<<<< *    **********.   * <<<<<",
"<<<<< @ < =@@Oo+@++@+* < + <<<<<",
"<<<<<< < *           .* < <<<<<<",
"<<<<<<<< + <<<<<<<<<< @ <<<<<<<<",
"<<<<<<<<< <<<<<<<<<<<< <<<<<<<<<",
"<<<<<<<<<<<<<<<<<<<<<<<<<<<<<<<<",
"<<<<<<<<<<<<<<<<<<<<<<<<<<<<<<<<",
"<<<<<<<<<<<<<<<<<<<<<<<<<<<<<<<<",
"<<<<<<<<<<<<<<<<<<<<<<<<<<<<<<<<",
"<<<<<<<<<<<<<<<<<<<<<<<<<<<<<<<<"
};
