/* XPM */
static char *c6ce150d7cf94d0ea179b5a4b74cc39c9tFb002wn63fCj9D[] = {
/* columns rows colors chars-per-pixel */
"32 32 10 1 ",
"  c #686868",
". c #6C6C6C",
"X c gray45",
"o c #747474",
"O c gray47",
"+ c gray50",
"@ c gray51",
"# c #868686",
"$ c #898989",
"% c gray56",
/* pixels */
"+Ooooooooo+@%%%%. #%#+Ooooooooo+",
"+++#%%%%%%%%%%%%OX#%%%%%@ .++++o",
"+++#%%%%%%%%%%%%Oo#%%%%%@ .++++o",
"+X.XOOOo.XOOOOOO#$+O+@@@+O+%$+++",
"+X .oooX  oooooo$%+oO+++++@%%+++",
"+@#@+++OOo..++####++OoooooO+Ooo+",
"+$%#+++++O  ++%%@+++Ooooooooooo+",
"+$%%$@OOOo..OO++OOOO+##########X",
"+$%%%#oooooooooooooo#%%%%%%%%%% ",
"O+@##@OOOOooooooOOX.+####@@@@++X",
"oooO++++++oooooo++. o+++OoooX  +",
"++++++++++oo++++++oXO++++++++ooo",
"%%%#++++++oo%%%%@@++@+++#%%%%%% ",
"$$$#+++++Ooo$$$$++OOO+++@$$$$$$.",
"+++++Ooooooooooooo. .oooooooo+++",
"+@@@@OXooooooooooo..XoooooooO@@@",
"+$%%%@ X%$oo++++++$%%%%%%%%%%%%%",
"+$%%%@ X%$oo++++++$%%%%%%%%%%%%%",
"+Ooooooooooooo++. O+++Ooooooo%%+",
"+Ooooooooooooo++. O+++Ooooooo%%+",
"+++#%@oooO%%%%oo  Xo@%%%%%$++@@+",
"+++#%#oooO%%%%oo  Xo#%%%%%$+++++",
".O+@@@+Ooo@@@@++##$$#@@@@@#%%%$.",
" o++++++oo++++++%%%%#+++++@%%%% ",
"oOOOOOOoooOOOOOO$%%%@OOOOOO++++o",
"+Ooooooooooooooo$%%%+oooooooooo+",
"+@@OoO@+..OOOOoo+@@@o.XooOOOO@@$",
"+$%@o+%# .++++oooooo. .oO+++@%%%",
"+#$@O+@+..OOOOooOOOOOO+@+++OO@@$",
"+++++Ooooooooooo++++$%%%$++oooo+",
"OOOOOOoXXX++++OO++++#$$#@OOooOO+",
"oooooooX .%%%%@+++++++Ooooooo+++"
};
