/* XPM */
static char *d02182fcb114447dba61fe581e427220n3lSvAE6OSihL6n8[] = {
/* columns rows colors chars-per-pixel */
"32 32 60 1 ",
"  c #C08028",
". c #C28528",
"X c #C0822D",
"o c #C58F2D",
"O c #C89333",
"+ c #CD9234",
"@ c #C99434",
"# c #E59D39",
"$ c #EE9E3D",
"% c #F19D3A",
"& c #F09C3C",
"* c #DDAD59",
"= c #ECAE4B",
"- c #EFAF4D",
"; c #F1AA40",
": c #F0AF49",
"> c #F3AF4C",
", c #EFB047",
"< c #EFB248",
"1 c #EFB14C",
"2 c #F1B048",
"3 c #F0B04E",
"4 c #EEB752",
"5 c #E9B154",
"6 c #F1B958",
"7 c #F7BA5D",
"8 c #DFB470",
"9 c #EBB060",
"0 c #EFB866",
"q c #ECBE69",
"w c #F2BF63",
"e c #F4BF61",
"r c #EFC25D",
"t c #F2C05F",
"y c #F5C15E",
"u c #F3C45C",
"i c #F5C45D",
"p c #EFC163",
"a c #F3C263",
"s c #F4C261",
"d c #F0C463",
"f c #F4C460",
"g c #F3C064",
"h c #FBC062",
"j c #F2CC69",
"k c #F0C96E",
"l c #F4CC6D",
"z c #F9CB6D",
"x c #EFCC70",
"c c #F3CC71",
"v c #F5CE71",
"b c #F2CD74",
"n c #F4CC74",
"m c #F7D99B",
"M c #F3D9A6",
"N c #FFFCE9",
"B c #FDFDF3",
"V c #FEFEF6",
"C c #FFFEFA",
"Z c #FEFEFE",
/* pixels */
"ZZZZZZZZZZZZZZZZZZZZZZZZZZZZZZZZ",
"ZZZZZZZZZZZZZZZZZZZZZZZZZZZZZZZZ",
"ZZZZZZZZZZZZZZZZZZZZZZZZZZZZZZZZ",
"ZZZZZZZZN52:21<3>222228BZZZZZZZZ",
"ZZZZZZC-o+@@@OOOOO..X.  hCZZZZZZ",
"ZZZZZZZay3221223<317ee4trZZZZZZZ",
"ZZZZZZZwtaaaatassacbbbbbbZZZZZZZ",
"ZZZZZZZattaasaaasaadbbbbcZZZZZZZ",
"ZZZZZZZfttaatttatyttcbbbaZZZZZZZ",
"ZZZZZZZqaaaattysyttsybbbmZZZZZZZ",
"ZZZZZZZZasaaatttttaagbbbZZZZZZZZ",
"ZZZZZZZZttatatyttaaaabbcZZZZZZZZ",
"ZZZZZZZZMyttaaaaataanbbBZZZZZZZZ",
"ZZZZZZZZZltttaaaaaaabbtZZZZZZZZZ",
"ZZZZZZZZZZkattaasaannaZZZZZZZZZZ",
"ZZZZZZZZZZZZjpaasexiZZZZZZZZZZZZ",
"ZZZZZZZZZZZZZZ,:3%ZZZZZZZZZZZZZZ",
"ZZZZZZZZZZZZZZZ64ZZZZZZZZZZZZZZZ",
"ZZZZZZZZZZZZZZZtkZZZZZZZZZZZZZZZ",
"ZZZZZZZZZZZZZZZtzZZZZZZZZZZZZZZZ",
"ZZZZZZZZZZZZZZZ,#ZZZZZZZZZZZZZZZ",
"ZZZZZZZZZZZZZZZ22ZZZZZZZZZZZZZZZ",
"ZZZZZZZZZZZZZZZavCZZZZZZZZZZZZZZ",
"ZZZZZZZZZZZZZZZabZZZZZZZZZZZZZZZ",
"ZZZZZZZZZZZZZZZafZZZZZZZZZZZZZZZ",
"ZZZZZZZZZZZZZZZyuZZZZZZZZZZZZZZZ",
"ZZZZZZZZZZC521222%%$0ZZZZZZZZZZZ",
"ZZZZZZZZZ=2222222:%%%%;ZZZZZZZZZ",
"ZZZZZZZZZV*223222>%%&9CZZZZZZZZZ",
"ZZZZZZZZZZZZZZZZZZZZZZZZZZZZZZZZ",
"ZZZZZZZZZZZZZZZZZZZZZZZZZZZZZZZZ",
"ZZZZZZZZZZZZZZZZZZZZZZZZZZZZZZZZ"
};
