/* XPM */
static char *dc12473411b941a79aabc2c9f82742ceGGrq3xz61uDu51QM[] = {
/* columns rows colors chars-per-pixel */
"32 32 163 2 ",
"   c None",
".  c #1C0A0E",
"X  c #110D0B",
"o  c #1D0F12",
"O  c #1E1B1C",
"+  c #191411",
"@  c #2E1117",
"#  c #201E1F",
"$  c #291F19",
"%  c #32131A",
"&  c #2A211A",
"*  c #39351E",
"=  c #3A1C23",
"-  c #2D2A29",
";  c #332B24",
":  c #3C2429",
">  c #362F29",
",  c #3C342F",
"<  c #373631",
"1  c #3C3433",
"2  c #3C3B3A",
"3  c #4D0C1B",
"4  c #430F1A",
"5  c #42151F",
"6  c #4A131F",
"7  c #451A24",
"8  c #4A1B25",
"9  c #4A1E28",
"0  c #4E1522",
"q  c #531E2A",
"w  c #581F2C",
"e  c #601929",
"r  c #4B222B",
"t  c #52252F",
"y  c #5D222E",
"u  c #432C31",
"i  c #4D2B32",
"p  c #5F2330",
"a  c #532A33",
"s  c #5D2934",
"d  c #562F38",
"f  c #592E38",
"g  c #493439",
"h  c #5A313A",
"j  c #61222F",
"k  c #683E28",
"l  c #602734",
"z  c #652D39",
"x  c #682D3A",
"c  c #742B3B",
"v  c #7A2B3B",
"b  c #65333D",
"n  c #6E303D",
"m  c #534B29",
"M  c #6F4533",
"N  c #704E3F",
"B  c #4C3E41",
"V  c #5D3741",
"C  c #5B3C43",
"Z  c #523E42",
"A  c #663E47",
"S  c #693E48",
"D  c #6B3B44",
"F  c #723543",
"G  c #7B3243",
"H  c #7B3D4B",
"J  c #733B47",
"K  c #444443",
"L  c #4B4445",
"P  c #4A4847",
"I  c #4C4C4C",
"U  c #554246",
"Y  c #514648",
"T  c #5D4247",
"R  c #575656",
"E  c #5B5455",
"W  c #585858",
"Q  c #65444B",
"!  c #6C414B",
"~  c #79404D",
"^  c #76414D",
"/  c #735242",
"(  c #6C4B52",
")  c #744A52",
"_  c #7B4D57",
"`  c #6E555A",
"'  c #655A5A",
"]  c #74545B",
"[  c #77585E",
"{  c #78545D",
"}  c #64625C",
"|  c #785B62",
" . c #616160",
".. c #6B6B65",
"X. c #727272",
"o. c #A47D2F",
"O. c #873244",
"+. c #8B3346",
"@. c #8C3548",
"#. c #823C4C",
"$. c #9B3A4F",
"%. c #963F52",
"&. c #9E3B51",
"*. c #A33D53",
"=. c #864353",
"-. c #894554",
";. c #804D57",
":. c #974659",
">. c #984658",
",. c #86535F",
"<. c #A54056",
"1. c #A7445A",
"2. c #AA455B",
"3. c #AB495F",
"4. c #B4435C",
"5. c #B8455E",
"6. c #8A715E",
"7. c #9F4E60",
"8. c #805B63",
"9. c #A14F62",
"0. c #AE4D63",
"q. c #BE4D65",
"w. c #B04E64",
"e. c #A35164",
"r. c #AF5166",
"t. c #B25268",
"y. c #BB5C72",
"u. c #897A7D",
"i. c #827375",
"p. c #BB7B73",
"a. c #C74C67",
"s. c #CC4B67",
"d. c #CB4C68",
"f. c #C6566F",
"g. c #CF526E",
"h. c #D1516D",
"j. c #CF5F78",
"k. c #C05E75",
"l. c #D55571",
"z. c #D65974",
"x. c #D95A76",
"c. c #DC5E7A",
"v. c #CF617A",
"b. c #DD627D",
"n. c #E1637F",
"m. c #A4853A",
"M. c #86857C",
"N. c #E3A666",
"B. c #8B7E81",
"V. c #C76C86",
"C. c #D56982",
"Z. c #D96D85",
"A. c #E36682",
"S. c #E66A86",
"D. c #E76D89",
"F. c #E96C88",
"G. c #EB718C",
"H. c #EF7691",
"J. c #EF7893",
"K. c #F17692",
"L. c #ABA99C",
"P. c #A6A497",
"I. c #B9B9AD",
/* pixels */
"           .K                       | a a a Q                   ",
"          M.K                 [ ` 9.y.K.K.K.Z.e.{               ",
"        2 L.P               8.y.K.K.K.K.K.K.K.K.k._             ",
"        K L.P             8.y.K.K.K.K.K.K.K.K.K.F.t             ",
"        ..M.}             ] H.K.K.K.K.J.K.K.K.K.d.d.i           ",
"      I I.<               e.K.K.K.K.H.K.K.K.K.A.d.s.g           ",
"      I I.<             * 7.K.K.Z./ m m y.F.c.d.s.*.F           ",
"      R P.<           1 m.7.K.K.N p.V.N.a x.s.s.s.3             ",
"    + > ; $ +           7 s.F.K.M o.o.k b.d.s.s.G               ",
"    1 , ; & ,           5 d.g.x.q.O.O.4.d.s.*.3                 ",
"    d b.h.c %           E +.s.s.s.s.d.d.+.% n                   ",
"    7 x.l.s.+.    A Q 7.l O.s.s.s.s.d.s.O.O.h             B T   ",
"      O $ X h   ) t.c.*.9 h.s.s.s.s.<.G 1.G.0.5       Q H A.*.) ",
"      1 6.& q.( t.h.8 #.a x.s.d.c c.9 n.c t b.F.H Y 7.f.l.s.s.8 ",
"        - @ s.c.5.( u.-.=.x.a x.y j.%.>.y.u.U G w.d.5.+.C # 4.Q ",
"    B     8 s.s.( X.t.r D.h.a F.@.7.v.l b.y.8.  H 6 e     ^ @.  ",
"  ! H.=.b   Z R B.y.@.7.A.9 z.K.@.:.D.r &.A.y.t         r *.F   ",
"  9.F.x.C.( W R y.A.x C.l.8 z.K.@.+.K.a ! 1.n.K.9.9.U P o . i   ",
"d F.H V 2.G.H.D.c.*.=.F.+.  a K.@.O.K.#.    f H e.v.A.H.G.A.*.! ",
"a x.C   F q x.h.*.#.D.h.c   a K.f.p H.x.z         x 0 w q &.s.r ",
"r l.2 C u   : = =.D.5.c     a j.A.8 A.H.V                 i a.8 ",
"7 d.+.4.7   Q C.x.h.c         7.A.8 z.K.C                 ;.*.J ",
"  c @.j   d G.l.H j           H A.8 z.K.S               : %.D   ",
"          ,.A.v               L G.1.G F.@.                      ",
"          e.@.                1 D.x.7 A.e.                      ",
"          9.+.                  #.x.. 1.e.      u               ",
"          >.*._ ` o             a x.O ~ b.8     d -.            ",
"          s d.&.c r             r h.R 1 l.3.A   ` y.g           ",
"            7 8                 8 *.J   s f.*.{ i.$.u           ",
"                          b Q ' $.4       y c &.$.v             ",
"                          F r.&.c             7 5               ",
"                            r 8                                 "
};
